!!!COM: Schubert, Franz
!!!CNT: Deutscher
!!!TXO: Deutsch
!!!OTL: "Im Dorfe"
!!!OPR: Winterreise
!!!LYR: Mu2ller, Wilhelm
!!!OPS: Opus 89
!!!ONM: No. 17
!!!ODT: 1827/
!!NB: Vocal melody only encoded.
**kern	**silbe
*clefG2	*
*k[f#c#]	*
*M12/8	*
*MM[langsam]	*
=6	=6
4r	.
8r	.
4r	.
{8a	{Es
4.a	bel-
4a	-len
8a	die
=7	=7
4.f#	Hun-
4f#	-de,
8f#	es
4.a	ras-
4a	-seln
8a	die
=8	=8
4.f#	Ket-
4f#}	-ten;}
{8f#	{es
4.dd	schla-
4dd	-fen
8dd	die
=9	=9
4.e	Men-
4e	-schen
8e	in
[4.dd	ih-
4dd]	|
8dd	-ren
=10	=10
4.e	Bet-
4.e}	-ten,}
2.r	.
=11	=11
2.r	.
{4.e	{tra2u-
4e	-men
8e	sich
=12	=12
4.f#	Man-
4.f#	-ches,
4.ccn	was
4ccn	sie
8ccn	nicht
=13	=13
(8ccn	ha-
4b)	|
4.b}	-ben,}
{4.cc#	{thun
4cc#	sich
8cc#	im
=14	=14
4.dd	Gu-
4a	-ten
8a	und
4.g	Ar-
4b	-gen
8a	er-
=15	=15
(8g	-la-
4f#)	|
4.f#}	-ben;}
2.r	.
=16	=16
2.r	.
{4.fn	{und
4fn	mor-
8fn	-gen
=17	=17
[4.e	fru2h
4e]	|
8e	ist
4.a	al-
4g	-les
8e	zer-
=18	=18
(8e	-flos-
8d)	|
8d}	-sen.}
4r	.
8r	.
2.r	.
=19	=19
2.r	.
4r	.
8r	.
4r	.
{8dd	{Je
=20	=20
4b	nun
8r	.
4r	.
8dd	je
4ccn	nun,
8r	.
4r	.
8dd	sie
=21	=21
8a	ha-
8b	-ben
8ccn	ihr
4dd	Theil
8ccn	ge-
8a#	-noss-
8b}	-en,}
8r	.
4r	.
{8b	{und
=22	=22
4dd	hoff-
8b	-en,
4r	.
8b	und
4dd	hoff-
8ccn	-en,
4r	.
8ee	was
=23	=23
8a	sie
8b	|
8ccn	noch
4dd	u2b-
8ccn	-rig
8a#	liess-
8b}	-en,}
8r	.
4r	.
{8b	{doch
=24	=24
(4b	wie-
8ee)	|
4ee	-der
8ee	zu
4.ccn	fin-
4a	-den,
8a	doch
=25	=25
(4a	wie-
8dd)	|
4dd	-der
8dd	zu
4.b	fin-
4g	-den
8g	auf
=26	=26
[4.cc#	ih-
8cc#]	|
8dd	|
8cc#	-ren
(8ee	Kis-
4dd)	|
4dd}	-sen.}
8r	.
=30	=30
2.r	.
{4.a	{Bellt
4a	mich
8a	nur
=31	=31
[4.f#	fort,
4f#]	|
8f#	ihr
[4.a	wa-
4a]	|
8a	-chen
=32	=32
(8g	Hun-
4f#)	|
4.f#}	-de,}
{4.dd	{lasst
4dd	mich
8dd	nicht
=33	=33
4.e	ruh'n
4e	in
8e	der
[4.dd	Schlum-
4dd]	|
8dd	-mer-
=34	=34
4.e	-stun-
4.e}	-de!}
2.r	.
=35	=35
4r	.
8r	.
4r	.
{8e	{Ich
[4.e	bin
4e]	|
8e	zu
=36	=36
4.fn	En-
4fn	-de
8fn	mit
[4.fn	al-
8fn]	|
8g	|
8fn	-len
=37	=37
4.fn	Tra2u-
4.d}	-men,}
4r	.
8r	.
{4.g	{was
=38	=38
4.a	will
4.dd	ich
4.a	un-
4bn	-ter
8bn	den
=39	=39
4.f#	Schla2-
4.g	-fern
2.a	sa2u-
=40	=40
4f#}	-men?}
8r	.
4r	.
{8f#	{Ich
[4.f#	bin
4f#]	|
8f#	zu
=41	=41
4.fn	En-
4fn	-de
8fn	mit
(4fn	al-
8a)	|
(4ccn	-len
8ee-)	|
=42	=42
(8cc#	Tra2u-
4dd)	|
4.dd}	-men,}
4r	.
8r	.
{4.g#	{was
=43	=43
4.a	will
4.dd	ich
4.a	un-
4b	-ter
8b	den
=44	=44
4.f#	Schla2-
4.g	-fern
[2.a	sa2u-
=45	=45
1.a]	|
=46	=46
4f#}	-men?}
8r	.
4r	.
8r	.
2.r	.
*-	*-
